storage/app/icons/phosphoricons/duotone/escalator-up-duotone.svg

<svg xmlns="http://www.w3.org/2000/svg" fill="currentColor" viewBox="0 0 256 256"><path d="M232 56v40a8 8 0 0 1-8 8h-40L88 208H32a8 8 0 0 1-8-8v-40a8 8 0 0 1 8-8h40l96-104h56a8 8 0 0 1 8 8" opacity=".2"/><path d="M224 40h-56a8 8 0 0 0-5.88 2.57L68.5 144H32a16 16 0 0 0-16 16v40a16 16 0 0 0 16 16h56a8 8 0 0 0 5.88-2.57L187.5 112H224a16 16 0 0 0 16-16V56a16 16 0 0 0-16-16m0 56h-40a8 8 0 0 0-5.88 2.57L84.5 200H32v-40h40a8 8 0 0 0 5.88-2.57L171.5 56H224Zm5.66 74.34a8 8 0 0 1-11.32 11.32L208 171.31V208a8 8 0 0 1-16 0v-36.69l-10.34 10.35a8 8 0 0 1-11.32-11.32l24-24a8 8 0 0 1 11.32 0Z"/></svg>

<svg xmlns="http://www.w3.org/2000/svg" viewBox="0 0 256 256" fill="currentColor"><path d="M232,56V96a8,8,0,0,1-8,8H184L88,208H32a8,8,0,0,1-8-8V160a8,8,0,0,1,8-8H72L168,48h56A8,8,0,0,1,232,56Z" opacity="0.2"/><path d="M224,40H168a8,8,0,0,0-5.88,2.57L68.5,144H32a16,16,0,0,0-16,16v40a16,16,0,0,0,16,16H88a8,8,0,0,0,5.88-2.57L187.5,112H224a16,16,0,0,0,16-16V56A16,16,0,0,0,224,40Zm0,56H184a8,8,0,0,0-5.88,2.57L84.5,200H32V160H72a8,8,0,0,0,5.88-2.57L171.5,56H224Zm5.66,74.34a8,8,0,0,1-11.32,11.32L208,171.31V208a8,8,0,0,1-16,0V171.31l-10.34,10.35a8,8,0,0,1-11.32-11.32l24-24a8,8,0,0,1,11.32,0Z"/></svg>
